X:1
T:Trio
T:Trio
T:für 2 Oboen und englisches Horn Opus 87
T:L. Van BEETHOVEN
T:I - Allegro II - Adagio III - Menuetto (Allegro molto. Scherzo.) IV - Finale (Presto)
C:L. Van BEETHOVEN
%%score 1 2 3
L:1/8
Q:1/4=180
M:4/4
K:C
V:1 treble nm="Oboe I"
V:2 treble nm="Oboe II"
V:3 treble transpose=-7 nm="Englisches Horn"
V:1
"^Allegro" z3/2!f! e/ |!>(! (e8!>)! |!p! .c2) z2 z4 | z4 z2 (e>f) | .g2 .g2 .g2 .e2 | %5
 .c2 (c2 d2 e2 | g3 f) e2 z2 | z4 z2 (f>g) | .a2 .a2 .a2 .f2 | .d2 (d2 e2 f2 | a3 g f2) z2 | %11
 (g3 f) .e2 z2 | (d4 c)BAG | (g3 ^f/g/ ag=fe) | (^cd)(cd) (=cBAG) | (g3 a/b/ c'/b/a/g/ a/g/f/)e/ | %16
 (^cd) d3 (e/d/ =c/B/A/G/) | c2 z2 z2 (e>f) | .g2 .g2 .g2 .c'2 | (c'4 b2) (b>c') | %20
 .d'2 .d'2 .d'2 .f2 | ((f4 e2)) (e>f) | (g^f)(gf) (gabc') | c'4 b2 (b>c') | (^c'd'=c'b agaf) | %25
 e2 (g2 c2) (e2 | A2) (c2 F2) (A2 | .G2) .G2 .G2 .^F2 |!f! GA/B/ c/d/e/^f/ gggg | %29
 .g2 .g2 .g2 .^f2 | g2 z2 g2 z2 | g2 z2 z4 | z8 | z4 z2!p! (g>a) |!<(! (._b2 .b2 .b2) (a>g)!<)! | %35
 ^f4 g4 |!f! c'4- c'=bag |!p! ^f4 g4 |!f! c'4- (c'bag) | ^f2 z2 z!p! .f.a.b | c'2 z2 z!p! .^f.a.b | %41
 .c'!f!.^f.a.b .c'.f.a.b | (c'bag!>(! ^fedc)!>)! |!p!"^dolce" (B3 c A3 B) | G2 (d3 ^c=cB) | %45
 (B3 c A3 B) | G2 (g3 ^f=fe) | e2 g4 d2- | d2 c4 B2 | (Ace^g abc'a) | (g2 ^f2) z4 | z8 | %52
 (b3 c' a3 b) | g2 (d'4 c'2) | (b3 c' a3 b) |"_cresc." .g.^f.g.a .b.^d.e.f | .g.B.c.=d .e.^G.A.B | %57
 c8- | c2 B2 c2 ec | (B2 d2 c2 A2) | B2 z2 z!<(! .c'.b.a!<)! | .g!f!.a.g.=f .e.f.e.d |!p! c8 | %63
!pp! _B4 _e4- | e4 d4 | (_e6 f2) | (_e6 f2) | (_e2 f2 e2 f2) | (_e4 ^c4 | d4 A4) | %70
!f! G/A/B/=c/ d/e/^f/g/ f/g/a/g/ f/d/e/f/ | g2 z2 d2 d2 | G/A/B/c/ d/e/^f/g/ f/g/a/g/ f/d/e/f/ | %73
 g2 z2 d2 d2 | G/A/B/c/ d/e/^f/g/ f/g/a/g/ f/d/e/f/ | g/b/a/g/ ^f/d/e/f/ g/b/a/g/ f/d/e/f/ | %76
 g/G/A/B/ c/d/e/^f/ !turn!g/f/g/a/ !turn!b/a/b/c'/ |!p!!<(! d'4-!<)!!>(! (d'c'ba)!>)! | %78
 .g2 g2- (g^fed) |!<(! (d'^c'd'c'!<)!!>(! d'=c'ba)!>)! | .g2 g2- (g^fed) | %81
!<(! (d'^c'd'c'!<)!!>(! d'=c'ba)!>)! | .g2 g2- (g^ga^f) | g2 z2 Bc/d/ e/^f/g/a/ | (bg).g.g g2 z2 | %85
 (d'b).b.b!p! _b4 | a4 _a4 | g4 ^f4 | (gd).d.d (ec).c.c |!f! c4!f!!>(! ^c4- | %90
 (c2 d2)!>)! z2!p! .^f2 | .g2 z2!f!!>(! ^c4- | (c2 d2)!>)! z2!p! .a2 | .b2 z2!ff!!>(! _b4- | %94
 (b2 =b2)!>)! z2!p! .^f2 | .g2 z2 z2 (a>b) | .g2 (a>b) .g2 (a>b) | g2 z2 z2 (c>d) | %98
 .B2 (c>d) .B2 (c>d) | .B2 z2 z2!f! .^f.a | .g.g.^f.a .g.g.^f.a | g2 z2 d2 z2 | B2 z2 z2 :: z2 | %104
 z8 | z2!p! (=f2 e2 d2 | c2)!f! .^g2 .a2 .b2 | .c'2 z2 z4 | z8 | z2!p! (_e2 d2 c2 | %110
 _B2)!f! .^f2 .g2 .a2 | ._b2 z2 z2!p! (g>a) | ._b2 .b2 .b2 .g2 | =e6 (=f>g) | ._a2 .a2 .a2 .f2 | %115
 d6 (_e>f) | .g2 (^f>g) .=a2 (a>_b) | .c'._b.a.g .^f._e.d.c | ._B2 (=e>f) .g2 (g>a) | (_bagf egfd | %120
 ced=B cedB) | c2 z2 z4 | z8 |!p! a3 _b g3 a | f2 (c'4 _b2) | (a3 _b g3 a | f3 g e3 f) | d2 z2 z4 | %128
 (f3 g e3 f) | (d2 a4 g2) | (f3 g e3 f) | (d2 a4 g2) | (f3 g e3 f | d3 e c3 d) | =B2 z2 z4 | %135
 (defe gfed) | e2 z2 z4 | (efgf agfe) | d/(G/A/B/ c/d/e/^f/ gfgf) | g2 z2 z4 | %140
 g/(G/A/B/ c/d/e/^f/ gfgf) | g2 z2 z4 | g/G/A/B/ c/d/e/^f/ g/d/e/f/ g/a/b/a/ | %143
 g/d/e/^f/ g/a/b/a/ g/d/e/f/ g/a/b/a/ | g8- | g8- | g8- | g8- | g8- | g8- | g8- | g8- | (g8 | ^f8 | %154
!p![Q:1/4=60] !fermata!=f6) z3/2!f![Q:1/4=180] e/ |!>(! (e8!>)! |!p! c2) z2 z4 | z4 z2 (e>f) | %158
 .g2 .g2 .g2 .e2 | .c2 (c2 d2 e2 | g3 f e2) z2 | z4 z2 (f>g) | (a^gag agaf) | .d2 (d2 e2 f2 | %164
 a3 g f2) z2 | (g3 f .e2) z2 |!<(! d4-!<)!!>(! dcBA!>)! | (g3 ^f/g/ ag=fe) | %168
!<(! (^cded!<)!!>(! =cBAG)!>)! | (cdef agfe) |!<(! (^cded!<)!!>(! =cBAG)!>)! | c2 z2 z2 (e>f) | %172
 .g2 .g2 .g2 .c'2 | (c'4 b2) (b>c') | .d'2 .d'2 .d'2 .f2 | (f4 e2) (e>f) | (g^fgf gabc') | %177
 (c'4 b2) (b>c') | (d'^c'd'c') d'2 =f2 | _e2 z2 z4 | z8 | z8 | z4 z2!p! (c>!<(!d) | %183
 (._e2 .e2!<)! .e2) (d>c) | (B4 c4) | f4- (f=edc) | (B4 c4) | f4- (f=edc) | B2 z2 z!p! .B.d.e | %189
 f2 z2 z .B.d.e | .f!f!.B.d.e .f.B.d.e | (fegf!>(! ag^f=f)!>)! |!p!"_dolce" (e3 f d3 e) | %193
 c2 (g3 ^f=fe) | (e3 f d3 e) | c2 (c'3 b_ba) | (a2 c'4) g2- | g2 f4 e2- | (ed^cd cde=c) | %199
 B2 z2 z4 | z8 | (e3 f d3 e) | c2 (g4 f2) | (e3 f d3 e) | .c"_cresc.".B.c.d .e.^g.a.b | %205
 .c'.e.f.=g .a.^c.d.e | f8 | (e4 f2 a>f) | (e2 g2 f2 d2) | e2 z2 z!p! .d'!<(!.c'.b!<)! | %210
 .a!f!.d'.c'._b .a.b.a.g |!p! f8 |!pp! _e4 _a4- | a4 g4 | (_a6 _b2) | ((_a6 _b2)) | %216
 (_a2 _b2 a2 b2) | (_a4 ^f4 | g4 d4) |!f! c/d/e/=f/ g/=a/b/c'/ d'/c'/b/a/ g/f/e/d/ | c2 z2 B2 B2 | %221
 c/d/e/f/ g/a/b/c'/ d'/c'/b/a/ g/f/e/d/ | c2 z2 B2 B2 | c/d/e/f/ g/a/b/c'/ d'/c'/b/a/ g/f/e/d/ | %224
 e/g/^f/g/ =f/g/f/g/ e/g/^f/g/ =f/g/f/g/ | e/C/D/E/ F/G/A/B/ c/B/c/d/ e/d/e/f/ | %226
!p!!<(! g4-!<)!!>(! (gfed)!>)! | .c2 .c2 (cBAG) |!<(! (g^fgf!<)!!>(! g=fed)!>)! | c2 c2- (cBAG) | %230
!<(! (g^fg^g!<)!!>(! a=fed)!>)! |{d} c2 (c3 edB) | c2 z2 EF/G/ A/B/c/d/ | (ec).c.c c2 z2 | %234
 (ge).e.e!pp! (_e4 | d4 _d4 | c4 B4) | (cG).G.G (A!<(!F).F.F!<)! |!f! F4!f! ^F4- | %239
!>(! (F2 G2)!>)! z2!p! .B2 | .c2 z2!f! ^f4- |!>(! (f2 g2)!>)! z2!p! .b2 | .c'2 z2!ff! _e4- | %243
!>(! (e2 =e2)!>)! z2!p! (f>d) | c2 z2 z2 (d>e) | .c2 (d>e) .c2 (d>e) | .c2 z2 z2 (f>g) | %247
 .e2 (f>g) .e2 (f>g) | .e2 z2 z2!f! bd' | .c'.c'.b.d' .c'.c'.b.d' | c'2 z2 g2 z2 | %251
 e2 z2 z2!ff! (g>a) | ._b2 .b2 .b2 .g2 | (e4!>(! f2)!>)! z2 | (B4 c2) z2 | d2 z2 B2 z2 | %256
 c2 z2 z2!p! (e>f) | .g2 .g2 .g2 .e2 | c2 z2 z2 (e>f) | .g2 .g2 .g2 .e2 | c2 z2 c'2 z2 | %261
 c'2 z2 z2 :| %262
V:2
 z3/2!f! G/ |!>(! (G8!>)! |!p! .E2) z2 z4 | z8 | z8 | z2!p! (G2 B2 c2 | d2 B2 c2) z2 | z8 | z8 | %9
 z2!p! A2 (^c2 d2 | e2 ^c2 d2) z2 | (d2 B2 =c2) z2 | (A2 F4 D2) | C2 z2 z4 | (A2 F4 D2) | %15
 C2 z2 z4 | (A2 F4 D2) | EGEG EGEG | EGEG EGEG | FGFG FGFG | FGFG FGDG | EGEG EGEG | EGEG EGEG | %23
 FGFG FGFG | FGFG FGDG | E2 (e>d) .c2 (c>B) | .A2 (A>G) .F2 (F>E) | .D2 .E2 .D2 .c2 | %28
!f! B2 z2 z2 .e2 | .d2 .e2 .d2 .c2 | B2 z2 B2 z2 | B2 z2 z4 | z4 z2!p! (_e>f) | %33
 (.g2 .g2 .g2 ._e2) |!<(! ^c8!<)! | =c4- (cBAG | ^F2) F2- (FGAB) |!p! c4- (cBAG | ^F2) F2- (FGAB) | %39
 .c!p!.c.A.G ^F2 z2 | z .c.A.G ^F2 z2 | z!f! .c.A.G ^F.c.A.G | ^F2 z2 z4 |!p!"^dolce" D4 D4 | %44
 D2 z2 z2 D2 | D4 D4 | D2 z2 z2 G2 | G2 z2 G2 z2 | ^F2 z2 G2 z2 | E2 z2 z2 e2 | (B2 A2) z4 | %51
 d d2 d2 d2 d- | dd g3 e ^f2 | g d2 d2 d2 d- | dd g3 e ^f2 |"_cresc." .d._e.d.c .B.c.B.A | %56
 .G._A.G.=F .=E.F.E.D | (C2 D2 E2 ^F2 | G2 ^G2 A2 cA) | (=G2 B2 A2 ^F2) | G2 z2 z!<(! .a.g.^f!<)! | %61
 .e!f!.=f.e.d .c.d.c.B |!p! A8 |!pp! G8 | F8 | (G6 _A2) | (G6 _A2) | (G2 _A2 G2 A2) | G4 G4- | %69
 G4 ^F4 | G2 z2 z4 | z4!f! c2 c2 | B2 z2 c2 c2 | B2 z2 c2 c2 | B2 z2 c2 c2 | B2 c2 B2 c2 | %76
 B2 z2 z4 |!p! (DGBG DAcA) | (DGBG D^FAF) | (DGBG DAcA) | (DGBG D^FAF) | d2 =f2- (fedc) | %82
 (BdBd Bdcd) | B2 z2 z4 | (dB).B.B B2 z2 | (bg).g.g!p! (g4 | ^f4 =f4 | e4) (_ec).c.c | %88
 (dB).B.B (cG).G.G |!f! G4!f!!>(! G4- | (G2 B2)!>)! z2!p! .c2 | .B2 z2!f!!>(! G4- | %92
 G2 B2!>)! z2!p! .^f2 | .g2 z2!ff!!>(! g4- | g4!>)! z2!p! .c2 | .B2 z2 z2 (c2 | .B2) (c2 .B2) (c2 | %97
 .B2) z2 z2 (A2 | .G2) (A2 .G2) (A2 | .G2) z2 z2!f! .A.c | .B.B.A.c .B.B.A.c | B2 z2 B2 z2 | %102
 G2 z2 z2 ::!p! (B>c) | .d2 .d2 .d2 .B2 | (^G8 | .A2)!f! .f2 .e2 .d2 | .c2 z2 z2!p! (A>_B) | %108
 .c2 .c2 .c2 .A2 | (^F8 | .=G2)!f! ._e2 .d2 .c2 | ._B2 z2 z2!p! (=e>=f) | .g2 .g2 .g2 .e2 | %113
 ^c6 (d>e) | .f2 .f2 .f2 .d2 | =B6 (=c>d) | ._e2 .e2 .e2 .c2 | A6 (B>c) | ._d2 .d2 .d2 .B2 | %119
 .G2 z2 z4 | z8 | z8 |!p! c c2 c2 c2 c- | c.c f3 .d (e2 | f) c2 c2 c2 c- | cc f3 d e2 | %126
 c2 (c4 ^c2 | d) A2 A2 A2 A- | A.A (d4 ^c2 | d) A2 A2 A2 A- | A.A (d4 ^c2 | d) A2 A2 A2 A- | %132
 A2 A4 A2- | A2 (G4 ^F2) | G2 z2 z4 | (Bcdc edcB) | c2 z2 z4 | (cded fedc) | B2 z2 z4 | %139
 (Bcdc edcB) | c2 z2 z4 | (cded fedc) | B2 z2 z4 | z8 | z4 z2!p! (B>c) | .d2 .d2 .d2 .B2 | %146
 .G2 z2 z2 (d>e) | .f2 .f2 .f2 .d2 | .B2 z2 z2 (d>e) | .f2 .d2 .B2 (d>e) | .f2 .d2 .B2 (d>e) | %151
 .f2 (d>e) .f2 (d>e) | .f2 z2 z4 | z8 |!p! !fermata!B6 z3/2!f! G/ |!>(! (G8!>)! |!p! E2) z2 z4 | %157
 z4 z2 (c>d) | .e2 .e2 .e2 .c2 | .E2 (G2 B2 c2 | d2 B2 c2) z2 | z4 z2 (d>e) | .f2 .f2 .f2 .d2 | %163
 .A2 (A2 ^c2 d2 | e2 ^c2 d2) z2 | (d2 B2 .=c2) z2 |!<(! (A2!<)!!>(! F4 D2)!>)! | C2 z2 z4 | %168
!<(! (A2!<)!!>(! F4 D2)!>)! | G2 z2 z4 |!<(! (A2!<)!!>(! F4 D2)!>)! | EGEG EGEG | EGEG EGEG | %173
 FGFG FGFG | FGFG FGdG | cGEG EGEG | EGEG EGEG | FGFG FGFG | FGBG BGdG | c2 z2 z4 | %180
 z4 z2!p! (c>d) | (._e2 .e2 .e2 .c2) | _A4!<(! G4 | ^F4!<)! =F4- | F2 z2 z4 | G2 G4 G2- | %186
 G2 G4 G2- | G2 G4 G2- | G2 z2 z!p! .G.B.c | d2 z2 z .G.B.c | .d!f!.G.B.c .d.G.B.c | d2 z2 z4 | %192
!p! G4 G4 | G2 z2 z2 G2 | G4 G4 | G2 z2 z2 c2 | c2 z2 c2 z2 | B2 z2 c2 z2 | A2 z2 z2 A2 | %199
 G2 z2 z4 | G G2 G2 G2 G- | G.G c3 A B2 | c G2 G2 G2 G- | G.G c3 A B2 | %204
 .G"_cresc."._A.G.F .E.f.e.d | .c._d.c._B .=A.B.A.G | (F2 G2 A2 =B2 | c2 ^c2 d2 fd) | %208
 (c2 e2 d2 B2) | c2 z2 z4 | z!f! ._b.a.g .f.g.f.e |!p! d8 |!pp! c8 | _B8 | (c6 _d2) | (c6 _d2) | %216
 (c2 _d2 c2 d2) | c4 (c4- | c4 B4) | E2 z2 z4 | z4!f! f2 f2 | e2 z2 F2 F2 | E2 z2 f2 f2 | %223
 e2 z2 B2 B2 | c2 B2 c2 B2 | c2 z2 z4 | z!p! .c(cG) z .A(AF) | z (EGE) z DDD | z2 c2 z2 (FA) | %229
 z (EGE) z DDD | z c2 c- cAGF |{F} E2 (E3 GFD) | E2 z2 z4 | z8 | (ec).c.c!pp! (c4 | B4 _B4 | %236
 A4) (_AF).F.F | (GE).E.E (F!<(!C).C.C!<)! |!f! C4!f! C4- |!>(! (C2 E2)!>)! z2!p! .F2 | %240
 .E2 z2!f! c4- |!>(! (c2 e2)!>)! z2!p! .f2 | .e2 z2!ff! c4- |!>(! c4!>)! z2!p! (D>F) | %244
 E2 z2 z2 (F2 | .E2) (F2 .E2) (F2 | .E2) z2 z2 (d2 | .c2) (d2 .c2) (d2 | .c2) z2 z2!f! df | %249
 .e.e.d.f .e.e.d.f | e2 z2 e2 z2 | c2 z2 z2!ff! (G>A) | ._B2 .B2 .B2 .G2 | (_d4!>(! c2)!>)! z2 | %254
 (_A4 G2) z2 | A2 z2 F2 z2 | E2 z2 z2!p! (c>d) | .e2 .e2 .e2 .G2 | E2 z2 z2 (c>d) | %259
 .e2 .e2 .e2 .G2 | E2 z2 e2 z2 | e2 z2 z2 :| %262
V:3
[K:G] z3/2!f! G/ |!>(! (G8!>)! |!p! .G2) z2 z2 (B>c) | .d2 .d2 .d2 .B2 | G2 z2 z4 | z2 (B2 A2 G2 | %6
 F2 D2 G2) (c>d) | .e2 .e2 .e2 .c2 | A2 z2 z4 | z2!p! (c2 B2 A2 | ^G2 E2 A2) z2 | (F2 D2 E2) z2 | %12
!<(! (C4!<)!!>(! D2) C2!>)! | B,2 z2 z4 |!<(! (C4!<)!!>(! D2) C2!>)! | B,2 z2 z4 | %16
!<(! (C4!<)!!>(! D4!>)! | G2)!<(! (g2!<)!!>(! f2!>)! g2) | G2 z2 z4 | z2 (A2 ^G2) A2 | %20
 D2 z2 z2 F2 | G2!<(! (g2!<)!!>(! f2!>)! g2) | G2 z2 z2 (G2 | A2) (A2 ^G2 A2) | D2 z2 z2 F2 | %25
 G2 (g>f) .e2 (e>d) | .c2 (c>B) .A2 (A>G) | .F2 .G2 .F2 .E2 |!f! D2 z2 z2 .g2 | .f2 .g2 .f2 .e2 | %30
 d2 z2 D2 z2 | D2 z2 z2!p! (d>_e) | (.=f2 .f2 .f2 .d2) | _B8- | B8 | A8- | A2 A2- (A=B^cd) | %37
!p! e2 A2 A2 A2 | A2 A2- (AB^cd) | .e!p!.e.^c.B A2 z2 | z .e.^c.B A2 z2 | z!f! .e.^c.B A.e.c.B | %42
 A2 z2 z4 |!p!"^dolce" (D4 G4 | F2) z2 z2 ^C2 | (D4 G4 | F2) z2 z2 F2 | G2 z2 F2 z2 | E2 z2 D2 z2 | %49
 G2 z2 z2 G2 | Aa^ga ga=ga | (f3 g e3 f) | d2 (a4 g2) | (f3 g e3 f) | d2 (a4 g2) | %55
"_cresc." .f.g.f.e .d.e.d.^c | .B.=c.B.A .G.A.G.F | (E2 F2 G2 A2 | B2 A2 G2 EG) | A2 z2 A2 z2 | %60
 .D.^c.d.e .f!<(!.^A.B.^c!<)! | .d!f!.F.G.=A .B.^D.E.F |!p! (G2 A2 B2 ^c2) |!pp! (d2 A2 _B2 D2 | %64
 _E2 =C2 =F2 =f2) | (_B=f)ff ffAf | (_B=f)ff ffAf | _B=fAf BfAf | (_B=f)ff (Bf)ff | %69
 (A^f)ff (Ag)gg | f2 z2 z4 |!f! D/E/F/G/ A/B/^c/d/ c/d/e/d/ c/A/B/c/ | d2 z2 A2 A2 | %73
 D/E/F/G/ A/B/^c/d/ c/d/e/d/ c/A/B/c/ | d2 z2 A2 A2 | d2 A2 d2 A2 | d2 z2 z4 |!p! F2 z2 G2 z2 | %78
 A2 z2 z2 G2 | F2 z2 G2 z2 | A2 z2 G2 z2 | (FAd).F (GBe).G | (Gdf).A AAAA | %83
 DE/F/ G/A/B/^c/ (dA).A.A | A2 z2 (fd).d.d | d2 z2!p! (_b^g).g.g | (aA).A.A (af).f.f | %87
 (gG).G.G (ge).e.e | (fd).d.d (GB).B.B |!f! B4!f!!>(! _B4- | (B2 A2)!>)! z2!p! .A2 | %91
 .D2 z2!f!!>(! _B4- | (B2 A2)!>)! z2!p! .A2 | .D2 z2!ff!!>(! ^G4- | (G2 A2)!>)! z2!p! A2 | %95
 (DA)AA AA^CA | DA^CA DA^CA | (DA)AA AA^cA | dA^cA dAcA | (da)aa a!f!aAa | daAa daAa | %101
 d2 z2 D2 z2 | D2 z2 z2 :: z2 | z8 | z2!p! (A2 G2 F2 | E2)!f! .a2 .g2 .f2 | .e2 z2 z4 | z8 | %109
 z2!p! (G2 =F2 E2 | D2)!f! .g2 .=f2 .e2 | .d2 z2 z4 | z4 z2!p! (d>e) | .=f2 .f2 .f2 (e>d) | %114
 c2 z2 z2 (c>d) | ._e2 .e2 .e2 (d>c) | ._B2 .g2 .g2 .=e2 | ^c6 (d>e) | .=f2 .f2 .f2 .d2 | %119
 .=B2 z2 z4 | z8 |!p! (GABc de=fd) | (e3 =f d3 e) | c2 (g4 =f2) | (e3 =f d3 e) | c2 (g4 =f2-) | %126
 (f2 e4 d2) | (c3 d B3 c) | A2 (e4 d2) | (c3 d B3 c) | A2 (e4 d2) | (c3 d B3 c) | (A3 B G3 A | %133
 ^F3 G E3 F) | .D(E/F/ G/A/B/^c/ dcdc) | d2 z2 z4 | .D(E/F/ G/A/B/^c/ dcdc) | d2 z2 z4 | D2 z2 z4 | %139
 (AB=cB dcBA) | B2 z2 z4 | (Bcdc edcB) | A2 z2 z4 | z8 | z8 | z4 z2!p! (A>B) | .c2 .c2 .c2 .A2 | %147
 .F2 z2 z2 (F>G) | .A2 .A2 .A2 .F2 | .D2 (F>G) .A2 .F2 | .D2 (F>G) .A2 .F2 | .D2 (F>G) .A2 (F>G) | %152
 .A2 z2 z4 | z8 |!p! !fermata!d6 z3/2!f! G/ |!>(! G8-!>)! |!p! G2 z2 z2 (B>c) | .d2 .d2 .d2 .B2 | %158
 .G2 z2 z4 | z2 (B2 A2 G2 | F2 D2 G2) (c>d) | (e^ded edec) | A2 z2 z4 | .c2 (c2 B2 A2 | %164
 ^G2 E2 A2) z2 | (F2 D2 .E2) z2 |!<(! (C4!<)!!>(! D2 C2)!>)! | B,2 z2 z4 | %168
!<(! (C4!<)!!>(! D2 C2)!>)! | B,2 z2 z4 |!<(! (C4!<)!!>(! D4!>)! | G2)!<(! (g2!<)!!>(! f2!>)! g2) | %172
 G2 z2 z4 | z2 (A2 ^G2 A2) | D2 z2 z2 F2 | =G2!<(! (g2!<)!!>(! f2!>)! g2) | G2 z2 z2 (G2 | %177
 .A2) (A2 ^G2 A2) | D2 z2 z2 F2 | =G2!p! (G>A) ._B2 (B>c) | (.d2 .d2) (.d2 ._B2) | G8- | %182
 G4!<(! F4 | E4!<)! _E4 | D2 c2- (cBAG) | F4- (FGAB) | D2 c2- (cBAG) | F4- (FGAB) | %188
 .D.c.A.G F2 z2 | z!p! .A.F.E D2 z2 | z!f! .c.A.G .F.A.F.E | D2 z2 z4 |!p! (G4 c4 | B2) z2 z2 F2 | %194
 (G4 c4 | B2) z2 z2 B2 | c2 z2 B2 z2 | A2 z2 G2 z2 | c2 z2 z2 ^c2 | (DFAd ^cd=cd) | (B3 c A3 B) | %201
 G2 (d4 c2) | (B3 c A3 B) | G2 (d4 c2) | .B"_cresc.".c.B.A .G.a.g.f | .e.=f.e.d .c.d.c.B | %206
 (A2 B2 c2 d2 | e2 d2 c2 Ac) | d2 z2 D2 z2 | .G.F.G.A!<(! .B.^d.e.f!<)! | .g!f!.B.c.=d .e.^G.A.B | %211
!p! (c2 d2 e2 f2) |!pp! (=g2 d2 _e2 G2) | (_A2 =F2 _B2) B2 | (_E_B)BB BBDB | (_E_B)BB BBDB | %216
 _E_BDB EBDB | (_E_B)BB (EB)BB | (D=B)BB (Dc)cc | G2 z2 z4 | %220
!f! G/A/B/c/ d/e/f/g/ a/g/f/e/ d/c/B/A/ | G2 z2 D2 D2 | G/A/B/c/ d/e/f/g/ a/g/f/e/ d/c/B/A/ | %223
 G2 z2 D2 D2 | G2 D2 G2 D2 | G2 z2 z4 |!p! (BDGB) (CEAc) | (DGBG) (CDFD) | (BDGB) (CEAc) | %229
 (DGBG) (CDFD) | (BDGB) (CE^GA) | DdDd DdDd | GA/B/ c/d/e/f/ gddd | d2 z2 (BG)GG | %234
 G2 z2!pp! (_e^c).c.c | (dD).D.D (dB).B.B | (cC).C.C (cA).A.A | (BG).G.G (C!<(!E).E.E!<)! | %238
!f! E4!f! _E4- |!>(! (E2 D2)!>)! z2!p! .D2 | .G2 z2!f! _e4- |!>(! (e2 d2)!>)! z2!p! .d2 | %242
 .G2 z2!ff! ^c4- |!>(! (c2 d2)!>)! z2!p! D2 | (Gd).d.d ddFd | GdFd GdFd | (Gd).d.d ddfd | %247
 gdfd gdfd | (gd)dd d!f!.d.D.d | .G.d.D.d .G.d.D.d | G2 z2 G2 z2 | G2 z2 z2!ff! (D>E) | %252
 .=F2 .F2 .F2 .D2 | (=f4!>(! e2)!>)! z2 | (c4 B2) z2 | C2 z2 D2 z2 | G2!p! (G>^F) G2 G2 | %257
 G2 z2 z2 (G>F) | G2 (G>^F) G2 G2 | G2 z2 z2 (G>F) | G2 (G>^F) G2 (G>^F) | G2 z2 z2 :| %262

